images/kartinka.svg

<svg width="71" height="59" viewBox="0 0 71 59" fill="none" xmlns="http://www.w3.org/2000/svg">
<path d="M1.55468 22.4023H1.55606L5.83965 22.4227C5.38194 22.7522 4.96676 23.1371 4.60358 23.5685C3.40971 24.9977 2.76275 26.8047 2.77825 28.6668C2.77822 28.7132 2.78105 28.7596 2.78674 28.8057L4.68814 43.5833C4.68918 44.6019 5.06063 45.5853 5.73322 46.3503C6.40582 47.1152 7.33365 47.6095 8.34374 47.7408V52.5395C8.34374 54.0178 9.48415 55.2676 10.9618 55.2676H15.8199C16.5382 55.2569 17.2239 54.9654 17.7299 54.4554C18.236 53.9454 18.5222 53.2576 18.5273 52.5391V47.8613H39.6952C40.0275 47.8613 40.2832 47.6407 40.5918 47.4048V57.379C40.5918 57.9755 41.0061 58.5078 41.6026 58.5078H45.6527C45.9237 58.5024 46.1831 58.3973 46.3815 58.2127C46.5798 58.028 46.7031 57.7768 46.7279 57.5069L47.237 52.2083C49.476 51.6282 51.6174 50.7217 53.5924 49.5179L57.6629 52.8857C57.8702 53.0571 58.1341 53.1449 58.4027 53.132C58.6714 53.1191 58.9256 53.0064 59.1156 52.816L64.8806 47.0502C65.0709 46.86 65.1833 46.6056 65.1959 46.3369C65.2085 46.0681 65.1203 45.8043 64.9486 45.5972L61.584 41.5336C62.7904 39.5589 63.6933 37.4142 64.2625 35.1713L69.549 34.6622C69.8163 34.6364 70.0644 34.5119 70.245 34.3131C70.4255 34.1142 70.5255 33.8553 70.5254 33.5867V25.4133C70.5254 25.1448 70.4254 24.8859 70.2449 24.6871C70.0643 24.4883 69.8163 24.3639 69.549 24.3382L64.262 23.829C63.6827 21.5908 62.7781 19.4498 61.5772 17.4743L64.9483 13.4033C65.1199 13.1962 65.2079 12.9325 65.1954 12.6638C65.1828 12.3952 65.0704 12.1409 64.8803 11.9507L59.1159 6.18574C58.9257 5.99555 58.6714 5.88317 58.4027 5.87059C58.134 5.858 57.8703 5.94612 57.6632 6.1177L53.6001 9.48245C51.6259 8.27457 49.4809 7.37125 47.2374 6.80293L46.7282 1.49265C46.7033 1.22282 46.5799 0.971603 46.3815 0.787036C46.1831 0.60247 45.9236 0.497498 45.6527 0.492188H41.6026C41.0061 0.492188 40.5918 1.02451 40.5918 1.62102V3.4965C40.4258 3.44188 40.2515 3.41727 40.0769 3.42383H23.9033C20.3493 3.42383 17.1914 5.87993 15.0075 10.3632L12.2805 15.1887C10.9983 15.186 8.04193 15.1774 6.41827 15.1774C3.82037 15.1774 1.7099 16.4706 1.04195 18.4743C0.736216 19.3965 0.54606 20.3532 0.475832 21.3223C0.468866 21.4645 0.491734 21.6066 0.542967 21.7395C0.5942 21.8723 0.672664 21.993 0.773316 22.0938C0.875502 22.1959 0.997575 22.276 1.13198 22.3291C1.26638 22.3822 1.41025 22.4071 1.55468 22.4023ZM42.7519 14.7079C50.3125 15.2808 56.4689 21.7021 56.4689 29.5C56.4689 37.2979 50.3125 43.7191 42.7519 44.2921V14.7079ZM42.7519 46.4572C51.5469 45.88 58.6291 38.4887 58.6291 29.5C58.6291 20.5113 51.5469 13.1205 42.7519 12.5428V2.65234H44.672L45.1614 7.75695C45.183 7.98641 45.2766 8.20318 45.4286 8.37636C45.5807 8.54953 45.7836 8.67025 46.0084 8.7213C48.5315 9.26919 50.9305 10.2826 53.0823 11.7096C53.2753 11.839 53.5049 11.9027 53.737 11.8912C53.9691 11.8798 54.1913 11.7938 54.3706 11.646L58.2836 8.40715L62.6581 12.7824L59.4179 16.6958C59.2715 16.8726 59.1852 17.0914 59.1715 17.3205C59.1579 17.5496 59.2176 17.7771 59.3419 17.97C60.7572 20.1339 61.7705 22.5353 62.3331 25.0589C62.3816 25.2826 62.5 25.4852 62.671 25.6373C62.8421 25.7894 63.0571 25.8832 63.285 25.9052L68.3652 26.3943V32.6057L63.2848 33.0951C63.057 33.1171 62.842 33.2109 62.6709 33.363C62.4998 33.5151 62.3815 33.7176 62.333 33.9413C61.7857 36.464 60.7745 38.863 59.3507 41.0163C59.2219 41.2096 59.1588 41.4393 59.1709 41.6713C59.183 41.9033 59.2695 42.1253 59.4177 42.3042L62.6579 46.2171L58.2836 50.5924L54.3706 47.3521C54.1938 47.2057 53.9749 47.1194 53.7457 47.1058C53.5165 47.0922 53.2889 47.152 53.096 47.2765C50.9334 48.6931 48.5321 49.7064 46.0084 50.2673C45.7828 50.321 45.5798 50.4441 45.4278 50.6193C45.2759 50.7945 45.1827 51.0129 45.1614 51.2438L44.672 56.3477H42.7519V46.4572ZM16.3672 52.5396C16.3625 52.6853 16.304 52.824 16.2029 52.9289C16.1017 53.0338 15.9653 53.0974 15.8199 53.1074H10.9618C10.6752 53.1074 10.5039 52.8258 10.5039 52.5391V47.8613H16.3672V52.5396ZM40.5918 34.7262C40.4291 34.6522 40.255 34.6068 40.0769 34.5918H25.8256L26.376 32.8914C26.7771 31.6674 28.2567 30.5801 29.5432 30.5801H40.0777C40.2498 30.6004 40.4242 30.5895 40.5926 30.548L40.5918 34.7262ZM40.5918 28.5818C40.4304 28.4994 40.2564 28.4447 40.0769 28.4199H29.5424C27.3101 28.4199 25.0172 30.1153 24.3221 32.2391L23.3095 35.358C23.2565 35.5184 23.2428 35.6891 23.2693 35.8559C23.2958 36.0227 23.3619 36.1808 23.4619 36.3168C23.5627 36.4535 23.6945 36.5642 23.8465 36.6399C23.9985 36.7155 24.1664 36.754 24.3361 36.752H40.0769C40.2507 36.763 40.4251 36.7428 40.5918 36.6924V38.8217C40.4253 38.77 40.2509 38.7486 40.0769 38.7583H21.2234C20.9369 38.7583 20.6622 38.8721 20.4596 39.0746C20.2571 39.2772 20.1433 39.5519 20.1433 39.8384C20.1433 40.1248 20.2571 40.3995 20.4596 40.6021C20.6622 40.8046 20.9369 40.9184 21.2234 40.9184H40.0769C40.2547 40.9048 40.4289 40.8607 40.5918 40.7879V46.0175C40.3412 45.8066 40.0225 45.6942 39.6952 45.7012H8.93639C8.37072 45.6927 7.83112 45.4619 7.43433 45.0587C7.03755 44.6554 6.81549 44.1121 6.8162 43.5464C6.81618 43.4952 6.81329 43.4441 6.80756 43.3932L4.93871 28.6157C4.96834 25.4938 7.1106 23.5872 9.25409 23.465C9.31802 23.4767 9.38289 23.4825 9.44789 23.4824H40.0769C40.2531 23.4792 40.4274 23.445 40.5918 23.3814V28.5818ZM16.9047 11.3855C16.9159 11.3661 16.9262 11.3573 16.9356 11.3373C17.9804 9.18466 20.2743 5.58398 23.9033 5.58398H40.0769C40.2542 5.57364 40.4285 5.5326 40.5918 5.46271V21.4148C40.4269 21.3539 40.2526 21.3226 40.0769 21.3223H11.2979L16.9047 11.3855ZM3.09116 19.1558C3.45438 18.0664 4.79152 17.3351 6.41827 17.3351C7.63906 17.3351 9.61329 17.3383 11.0626 17.3409L9.40113 20.284L2.79214 20.2925C2.86826 19.9078 2.96813 19.5282 3.09116 19.1558Z" fill="#8A1A10"/>
</svg>

<svg width="71" height="59" fill="none" xmlns="http://www.w3.org/2000/svg"><path d="M1.555 22.402h.001l4.284.02c-.458.33-.873.715-1.236 1.146a7.85 7.85 0 00-1.826 5.099c0 .046.003.093.009.139l1.901 14.777a4.197 4.197 0 003.656 4.158v4.798c0 1.479 1.14 2.729 2.618 2.729h4.858a2.748 2.748 0 002.707-2.729v-4.678h21.168c.333 0 .588-.22.897-.456v9.974c0 .596.414 1.129 1.01 1.129h4.05a1.102 1.102 0 001.076-1.001l.509-5.299a23.569 23.569 0 006.355-2.69l4.07 3.368a1.08 1.08 0 001.454-.07l5.765-5.766a1.08 1.08 0 00.068-1.453l-3.365-4.063a23.106 23.106 0 002.678-6.363l5.287-.509a1.08 1.08 0 00.976-1.075v-8.174a1.08 1.08 0 00-.976-1.075l-5.287-.509a23.634 23.634 0 00-2.685-6.355l3.371-4.07a1.08 1.08 0 00-.068-1.453l-5.764-5.765a1.08 1.08 0 00-1.453-.068L53.6 9.482a23.025 23.025 0 00-6.363-2.68l-.509-5.31a1.102 1.102 0 00-1.075-1h-4.05c-.597 0-1.011.533-1.011 1.129v1.876a1.47 1.47 0 00-.515-.073H23.903c-3.554 0-6.712 2.456-8.895 6.94l-2.727 4.825c-1.283-.003-4.24-.012-5.863-.012-2.598 0-4.708 1.294-5.376 3.297a11.75 11.75 0 00-.566 2.848 1.021 1.021 0 00.297.772 1.057 1.057 0 00.782.308zm41.197-7.694c7.56.573 13.717 6.994 13.717 14.792s-6.157 14.22-13.717 14.792V14.708zm0 31.75c8.795-.578 15.877-7.97 15.877-16.958 0-8.989-7.082-16.38-15.877-16.957v-9.89h1.92l.49 5.104a1.095 1.095 0 00.846.964 20.777 20.777 0 017.074 2.989 1.08 1.08 0 001.289-.064l3.913-3.239 4.374 4.375-3.24 3.914a1.08 1.08 0 00-.076 1.274 21.496 21.496 0 012.991 7.089 1.08 1.08 0 00.952.846l5.08.49v6.21l-5.08.49a1.08 1.08 0 00-.952.846 20.837 20.837 0 01-2.982 7.075 1.08 1.08 0 00.067 1.288l3.24 3.913-4.374 4.375-3.913-3.24a1.08 1.08 0 00-1.275-.075 21.413 21.413 0 01-7.088 2.99 1.108 1.108 0 00-.847.977l-.489 5.104h-1.92v-9.89zM16.367 52.54a.588.588 0 01-.547.567h-4.858c-.287 0-.458-.281-.458-.568v-4.678h5.863v4.679zm24.225-17.814a1.56 1.56 0 00-.515-.134H25.826l.55-1.7c.401-1.225 1.88-2.312 3.167-2.312h10.535c.172.02.346.01.515-.032l-.001 4.178zm0-6.144a1.62 1.62 0 00-.515-.162H29.542c-2.232 0-4.525 1.695-5.22 3.82l-1.012 3.118a1.058 1.058 0 00.537 1.282c.151.075.32.114.49.112h15.74c.174.011.348-.01.515-.06v2.13a1.462 1.462 0 00-.515-.064H21.223a1.08 1.08 0 000 2.16h18.854c.178-.013.352-.057.515-.13v5.23a1.348 1.348 0 00-.897-.317H8.936a2.153 2.153 0 01-2.12-2.155c0-.05-.003-.102-.008-.153l-1.87-14.777c.03-3.122 2.173-5.029 4.316-5.151a.972.972 0 00.194.017h30.629c.176-.003.35-.037.515-.1v5.2zM16.905 11.385c.01-.019.021-.028.03-.048 1.045-2.152 3.34-5.753 6.968-5.753h16.174c.177-.01.352-.051.515-.121v15.952a1.494 1.494 0 00-.515-.093h-28.78l5.608-9.936zM3.09 19.155c.363-1.089 1.7-1.82 3.327-1.82 1.221 0 3.195.003 4.645.006L9.4 20.284l-6.609.009c.076-.385.176-.765.3-1.137z" fill="#8A1A10"/></svg>
